findly-builder/apps/searchassist/src/assets/icons/onboarding/review-index.svg

<svg width="22" height="22" viewBox="0 0 22 22" fill="none" xmlns="http://www.w3.org/2000/svg">
<path d="M19.2493 3.20829V18.7916C19.2493 19.2981 18.8391 19.7083 18.3327 19.7083H16.041V2.29163H18.3327C18.8391 2.29163 19.2493 2.70183 19.2493 3.20829Z" fill="url(#paint0_linear_629_33052)"/>
<path d="M18.3327 3.20829V18.7916C18.3327 19.2981 17.9225 19.7083 17.416 19.7083H14.666V2.29163H17.416C17.9225 2.29163 18.3327 2.70183 18.3327 3.20829Z" fill="url(#paint1_linear_629_33052)"/>
<path d="M5.95898 3.20829V18.7916C5.95898 19.2981 6.36919 19.7083 6.87565 19.7083H7.33398V2.29163H6.87565C6.36919 2.29163 5.95898 2.70183 5.95898 3.20829Z" fill="url(#paint2_linear_629_33052)"/>
<path d="M16.5007 2.29163H7.33398V19.7083H16.5007C17.0071 19.7083 17.4173 19.2981 17.4173 18.7916V3.20829C17.4173 2.70183 17.0071 2.29163 16.5007 2.29163Z" fill="url(#paint3_linear_629_33052)"/>
<path opacity="0.05" d="M14.3552 4.125H5.95898V19.7083H14.3552C15.287 19.7083 16.0423 18.953 16.0423 18.0212V5.81212C16.0423 4.88033 15.287 4.125 14.3552 4.125Z" fill="black"/>
<path opacity="0.07" d="M14.2828 4.58337H5.95898V19.7084H14.2828C15.0014 19.7084 15.584 19.1258 15.584 18.4072V5.88458C15.584 5.16592 15.0014 4.58337 14.2828 4.58337Z" fill="black"/>
<path d="M15.1243 5.95829V18.7916C15.1243 19.2981 14.7141 19.7083 14.2077 19.7083H11.916V5.04163H14.2077C14.7141 5.04163 15.1243 5.45183 15.1243 5.95829Z" fill="#1783BD"/>
<path d="M14.2077 5.95829V18.7916C14.2077 19.2981 13.7975 19.7083 13.291 19.7083H10.541V5.04163H13.291C13.7975 5.04163 14.2077 5.45183 14.2077 5.95829Z" fill="url(#paint4_linear_629_33052)"/>
<path d="M2.75 5.95829V18.7916C2.75 19.2981 3.16021 19.7083 3.66667 19.7083H4.125V5.04163H3.66667C3.16021 5.04163 2.75 5.45183 2.75 5.95829Z" fill="url(#paint5_linear_629_33052)"/>
<path d="M12.375 5.04163H4.125V19.7083H12.375C12.8815 19.7083 13.2917 19.2981 13.2917 18.7916V5.95829C13.2917 5.45183 12.8815 5.04163 12.375 5.04163Z" fill="url(#paint6_linear_629_33052)"/>
<path d="M10.9993 9.625H6.41602V10.5417H10.9993V9.625Z" fill="#1B9DE2"/>
<defs>
<linearGradient id="paint0_linear_629_33052" x1="16.041" y1="11" x2="19.2493" y2="11" gradientUnits="userSpaceOnUse">
<stop stop-color="#7F22E2"/>
<stop offset="1" stop-color="#B133F0"/>
</linearGradient>
<linearGradient id="paint1_linear_629_33052" x1="16.4865" y1="11.0004" x2="17.9266" y2="11.0004" gradientUnits="userSpaceOnUse">
<stop offset="0.441" stop-color="#999998"/>
<stop offset="0.653" stop-color="#C1C1C0"/>
<stop offset="0.88" stop-color="#E5E5E5"/>
<stop offset="1" stop-color="#F3F3F3"/>
</linearGradient>
<linearGradient id="paint2_linear_629_33052" x1="4.34107" y1="4.34313" x2="9.54498" y2="18.5198" gradientUnits="userSpaceOnUse">
<stop stop-color="#6F01D0"/>
<stop offset="1" stop-color="#51189C"/>
</linearGradient>
<linearGradient id="paint3_linear_629_33052" x1="9.28923" y1="2.96904" x2="15.4364" y2="19.7143" gradientUnits="userSpaceOnUse">
<stop stop-color="#B133F0"/>
<stop offset="1" stop-color="#9F22E2"/>
</linearGradient>
<linearGradient id="paint4_linear_629_33052" x1="12.3615" y1="12.3754" x2="13.8016" y2="12.3754" gradientUnits="userSpaceOnUse">
<stop offset="0.441" stop-color="#999998"/>
<stop offset="0.653" stop-color="#C1C1C0"/>
<stop offset="0.88" stop-color="#E5E5E5"/>
<stop offset="1" stop-color="#F3F3F3"/>
</linearGradient>
<linearGradient id="paint5_linear_629_33052" x1="1.51708" y1="6.76771" x2="5.91021" y2="18.7348" gradientUnits="userSpaceOnUse">
<stop stop-color="#0176D0"/>
<stop offset="1" stop-color="#16538C"/>
</linearGradient>
<linearGradient id="paint6_linear_629_33052" x1="6.05458" y1="5.5215" x2="11.291" y2="19.7871" gradientUnits="userSpaceOnUse">
<stop stop-color="#33BEF0"/>
<stop offset="1" stop-color="#22A5E2"/>
</linearGradient>
</defs>
</svg>

<svg width="22" height="22" fill="none" xmlns="http://www.w3.org/2000/svg"><path d="M19.25 3.208v15.584c0 .506-.41.916-.917.916H16.04V2.292h2.292c.506 0 .916.41.916.916Z" fill="url(#a)"/><path d="M18.333 3.208v15.584c0 .506-.41.916-.917.916h-2.75V2.292h2.75c.506 0 .917.41.917.916Z" fill="url(#b)"/><path d="M5.959 3.208v15.584c0 .506.41.916.917.916h.458V2.292h-.458a.916.916 0 0 0-.917.916Z" fill="url(#c)"/><path d="M16.5 2.292H7.335v17.416h9.167c.506 0 .916-.41.916-.916V3.208a.916.916 0 0 0-.916-.916Z" fill="url(#d)"/><path opacity=".05" d="M14.355 4.125H5.96v15.583h8.396c.932 0 1.687-.755 1.687-1.687V5.812c0-.932-.755-1.687-1.687-1.687Z" fill="#000"/><path opacity=".07" d="M14.283 4.583H5.959v15.125h8.324a1.3 1.3 0 0 0 1.301-1.3V5.884c0-.72-.583-1.302-1.301-1.302Z" fill="#000"/><path d="M15.124 5.958v12.834c0 .506-.41.916-.916.916h-2.292V5.042h2.292c.506 0 .916.41.916.916Z" fill="#1783BD"/><path d="M14.208 5.958v12.834c0 .506-.41.916-.917.916h-2.75V5.042h2.75c.506 0 .917.41.917.916Z" fill="url(#e)"/><path d="M2.75 5.958v12.834c0 .506.41.916.917.916h.458V5.042h-.458a.916.916 0 0 0-.917.916Z" fill="url(#f)"/><path d="M12.375 5.042h-8.25v14.666h8.25c.507 0 .917-.41.917-.916V5.958a.916.916 0 0 0-.917-.916Z" fill="url(#g)"/><path d="M11 9.625H6.415v.917h4.583v-.917Z" fill="#1B9DE2"/><defs><linearGradient id="a" x1="16.041" y1="11" x2="19.249" y2="11" gradientUnits="userSpaceOnUse"><stop stop-color="#7F22E2"/><stop offset="1" stop-color="#B133F0"/></linearGradient><linearGradient id="b" x1="16.486" y1="11" x2="17.927" y2="11" gradientUnits="userSpaceOnUse"><stop offset=".441" stop-color="#999998"/><stop offset=".653" stop-color="#C1C1C0"/><stop offset=".88" stop-color="#E5E5E5"/><stop offset="1" stop-color="#F3F3F3"/></linearGradient><linearGradient id="c" x1="4.341" y1="4.343" x2="9.545" y2="18.52" gradientUnits="userSpaceOnUse"><stop stop-color="#6F01D0"/><stop offset="1" stop-color="#51189C"/></linearGradient><linearGradient id="d" x1="9.289" y1="2.969" x2="15.436" y2="19.714" gradientUnits="userSpaceOnUse"><stop stop-color="#B133F0"/><stop offset="1" stop-color="#9F22E2"/></linearGradient><linearGradient id="e" x1="12.361" y1="12.375" x2="13.802" y2="12.375" gradientUnits="userSpaceOnUse"><stop offset=".441" stop-color="#999998"/><stop offset=".653" stop-color="#C1C1C0"/><stop offset=".88" stop-color="#E5E5E5"/><stop offset="1" stop-color="#F3F3F3"/></linearGradient><linearGradient id="f" x1="1.517" y1="6.768" x2="5.91" y2="18.735" gradientUnits="userSpaceOnUse"><stop stop-color="#0176D0"/><stop offset="1" stop-color="#16538C"/></linearGradient><linearGradient id="g" x1="6.055" y1="5.521" x2="11.291" y2="19.787" gradientUnits="userSpaceOnUse"><stop stop-color="#33BEF0"/><stop offset="1" stop-color="#22A5E2"/></linearGradient></defs></svg>
